Costumes/j-block.svg

<?xml version="1.0" encoding="UTF-8" standalone="no"?>
<svg
   version="1.1"
   width="49.310123"
   height="79.499992"
   id="svg5"
   sodipodi:docname="j-block.svg"
   xmlns:inkscape="http://www.inkscape.org/namespaces/inkscape"
   xmlns:sodipodi="http://sodipodi.sourceforge.net/DTD/sodipodi-0.dtd"
   xmlns="http://www.w3.org/2000/svg"
   xmlns:svg="http://www.w3.org/2000/svg">
  <defs
     id="defs9" />
  <sodipodi:namedview
     id="namedview7"
     pagecolor="#ffffff"
     bordercolor="#000000"
     borderopacity="0.25"
     inkscape:showpageshadow="2"
     inkscape:pageopacity="0.0"
     inkscape:pagecheckerboard="0"
     inkscape:deskcolor="#d1d1d1" />
  <!-- Exported by Scratch - http://scratch.mit.edu/ -->
  <g
     id="ID0.37803533719852567"
     transform="translate(-0.68479481,-0.50314522)">
    <path
       id="ID0.15437999367713928"
       fill="#ff9400"
       d="m 327,368 c -2.396,0.605 -4.562,1.438 -8,1 1.489,19.796 7.491,45.979 -5,58 -14.065,1.731 -20.397,-4.27 -25,-12 1.686,-1.647 4.494,-2.173 6,-4 22.069,21.979 24.559,-22.542 17,-41 -5,0 -10,0 -15,0 0.531,-2.182 2.419,-6.468 -1,-7 6.914,-4.086 20.123,-1.877 29,-4 4.055,-0.388 1.102,6.232 2,9 z"
       transform="matrix(1.0063291,0,0,1.0063291,-283.1,-357.75)" />
    <path
       id="ID0.16048103151842952"
       d="m 324,356 c 2.333,0 4.667,0 7,0 0,5 0,10 0,15 -1.891,3.443 -4.557,6.11 -8,8 3.841,21.579 2.533,48.01 -13,56 -2,0 -4,0 -6,0 -11.942,-0.725 -17.215,-8.118 -22,-16 0,-1.333 0,-2.667 0,-4 6.523,-1.477 7.941,-8.059 15,-9 1.938,2.729 2.171,7.162 7,7 7.671,-6.93 4.712,-24.783 2,-36 -5.272,-0.568 -12.626,0.861 -15,0 0.803,-6.461 -2.322,-13.149 3,-18 10.281,-0.719 21.384,-0.616 30,-3 z m 1,3 c -8.877,2.123 -22.086,-0.086 -29,4 3.419,0.532 1.531,4.818 1,7 5,0 10,0 15,0 7.559,18.458 5.069,62.979 -17,41 -1.506,1.827 -4.314,2.353 -6,4 4.603,7.73 10.935,13.731 25,12 12.491,-12.021 6.489,-38.204 5,-58 3.438,0.438 5.604,-0.395 8,-1 -0.898,-2.768 2.055,-9.388 -2,-9 z"
       transform="matrix(1.0063291,0,0,1.0063291,-283.1,-357.75)" />
  </g>
</svg>

<svg version="1.1" width="50" height="80" xmlns="http://www.w3.org/2000/svg" xmlns:xlink="http://www.w3.org/1999/xlink">
  <!-- Exported by Scratch - http://scratch.mit.edu/ -->
  <g id="ID0.37803533719852567">
    <path id="ID0.15437999367713928" fill="#FF9400" d="M 327 368 C 324.604 368.605 322.438 369.438 319 369 C 320.489 388.796 326.491 414.979 314 427 C 299.935 428.731 293.603 422.730 289 415 C 290.686 413.353 293.494 412.827 295 411 C 317.069 432.979 319.559 388.458 312 370 C 307 370 302 370 297 370 C 297.531 367.818 299.419 363.532 296 363 C 302.914 358.914 316.123 361.123 325 359 C 329.055 358.612 326.102 365.232 327 368 Z " transform="matrix(1.00632905960083, 0, 0, 1.00632905960083, -283.1, -357.75)"/>
    <path id="ID0.16048103151842952" d="M 324 356 C 326.333 356 328.667 356 331 356 C 331 361 331 366 331 371 C 329.109 374.443 326.443 377.110 323 379 C 326.841 400.579 325.533 427.010 310 435 C 308 435 306 435 304 435 C 292.058 434.275 286.785 426.882 282 419 C 282 417.667 282 416.333 282 415 C 288.523 413.523 289.941 406.941 297 406 C 298.938 408.729 299.171 413.162 304 413 C 311.671 406.070 308.712 388.217 306 377 C 300.728 376.432 293.374 377.861 291 377 C 291.803 370.539 288.678 363.851 294 359 C 304.281 358.281 315.384 358.384 324 356 Z M 325 359 C 316.123 361.123 302.914 358.914 296 363 C 299.419 363.532 297.531 367.818 297 370 C 302 370 307 370 312 370 C 319.559 388.458 317.069 432.979 295 411 C 293.494 412.827 290.686 413.353 289 415 C 293.603 422.730 299.935 428.731 314 427 C 326.491 414.979 320.489 388.796 319 369 C 322.438 369.438 324.604 368.605 327 368 C 326.102 365.232 329.055 358.612 325 359 Z " transform="matrix(1.00632905960083, 0, 0, 1.00632905960083, -283.1, -357.75)"/>
  </g>
</svg>
